img/map-markers/children.svg

<svg width="150" height="150" viewBox="0 0 150 150" fill="none" xmlns="http://www.w3.org/2000/svg">
<g filter="url(#filter0_d_2_133)">
<circle cx="75" cy="65" r="25" fill="white"/>
</g>
<circle cx="75" cy="65" r="25" fill="white"/>
<circle cx="75.236" cy="64.7641" r="21.934" fill="#FC6733"/>
<path fill-rule="evenodd" clip-rule="evenodd" d="M72.7559 58.7492C72.4307 57.1914 70.6135 55.9973 68.6567 56C66.6999 56.0027 64.9127 57.1834 64.5793 58.7492C64.4973 59.1455 64.3497 60.2468 65.0329 62.5176C65.4264 63.8322 66.7245 64.8869 68.6675 64.8869C70.6106 64.8869 71.9085 63.832 72.3048 62.5176C72.9853 60.2468 72.8378 59.1455 72.7559 58.7492H72.7559Z" fill="white"/>
<path fill-rule="evenodd" clip-rule="evenodd" d="M72.7998 65.6163C72.4208 65.2838 71.9639 65.0526 71.4717 64.9442C70.7048 65.6416 69.6955 66.0115 68.6596 65.9745C67.6251 66.0107 66.6172 65.642 65.8502 64.9468C65.3557 65.0581 64.8971 65.2922 64.5166 65.6273C63.3252 66.9089 63.0547 70.7127 63 72.7599H74.3381C74.2834 70.7048 74.0074 66.8927 72.7996 65.6161L72.7998 65.6163Z" fill="white"/>
<path fill-rule="evenodd" clip-rule="evenodd" d="M84.9465 65.603C84.5687 65.2706 84.1127 65.0391 83.6211 64.9307C82.8533 65.6282 81.8432 65.9978 80.8064 65.961C79.7688 65.9986 78.7576 65.6287 77.989 64.9307C77.4968 65.0435 77.041 65.2786 76.6636 65.6139C75.4611 66.8983 75.188 70.7076 75.1332 72.7601H86.5016C86.4332 70.6995 86.1572 66.8817 84.9465 65.6032V65.603Z" fill="white"/>
<path d="M86.0865 60.1346C85.7176 60.0372 85.3352 60.0029 84.9549 60.0336C84.9992 59.607 84.9816 59.1764 84.9031 58.7547C84.7149 58.0027 84.2569 57.3462 83.616 56.91C83.1472 56.5698 82.6188 56.3204 82.0582 56.175C81.6501 56.0654 81.2294 56.0094 80.8066 56.0082C80.3195 56.0088 79.8352 56.0816 79.3693 56.2242C78.7425 56.4125 78.1644 56.7353 77.6748 57.1697C77.1918 57.5849 76.853 58.1428 76.7074 58.7629C76.634 59.1823 76.6192 59.61 76.6638 60.0336C76.2846 60.0029 75.9028 60.037 75.5351 60.1346C74.8847 60.3096 73.7287 61.2086 74.0949 62.6543C74.248 63.2555 75.2154 63.9824 75.8931 64.3978C75.5133 63.3322 75.5707 62.4058 75.8439 61.8291C76.0448 61.4362 76.3721 61.1225 76.773 60.9381C76.8706 61.4783 77.0002 62.0121 77.1611 62.5369C77.1802 62.5998 77.2021 62.6598 77.224 62.7201C77.683 63.9527 78.9484 64.9063 80.8066 64.9063C82.6648 64.9063 83.9328 63.9416 84.3892 62.7037C84.4111 62.6463 84.4328 62.5889 84.4492 62.5287H84.4494C84.6099 62.0035 84.7403 61.4698 84.8402 60.9299C85.2418 61.1163 85.5684 61.4333 85.7666 61.8291C86.04 62.4113 86.1 63.3375 85.7256 64.4035C86.4033 63.9881 87.3654 63.2613 87.5238 62.66C87.89 61.2088 86.734 60.3096 86.0865 60.1346L86.0865 60.1346Z" fill="white"/>
<defs>
<filter id="filter0_d_2_133" x="0" y="0" width="150" height="150" filterUnits="userSpaceOnUse" color-interpolation-filters="sRGB">
<feFlood flood-opacity="0" result="BackgroundImageFix"/>
<feColorMatrix in="SourceAlpha" type="matrix" values="0 0 0 0 0 0 0 0 0 0 0 0 0 0 0 0 0 0 127 0" result="hardAlpha"/>
<feOffset dy="10"/>
<feGaussianBlur stdDeviation="25"/>
<feColorMatrix type="matrix" values="0 0 0 0 0 0 0 0 0 0 0 0 0 0 0 0 0 0 0.1 0"/>
<feBlend mode="normal" in2="BackgroundImageFix" result="effect1_dropShadow_2_133"/>
<feBlend mode="normal" in="SourceGraphic" in2="effect1_dropShadow_2_133" result="shape"/>
</filter>
</defs>
</svg>

<svg width="150" height="150" viewBox="0 0 150 150" fill="none" xmlns="http://www.w3.org/2000/svg"><circle cx="75" cy="65" r="25" fill="#fff" filter="url(#a)"/><circle cx="75" cy="65" r="25" fill="#fff"/><circle cx="75.236" cy="64.764" r="21.934" fill="#FC6733"/><path fill-rule="evenodd" clip-rule="evenodd" d="M72.756 58.75c-.325-1.559-2.142-2.753-4.1-2.75-1.956.003-3.743 1.183-4.077 2.75-.082.395-.23 1.497.454 3.768.393 1.314 1.692 2.369 3.635 2.369 1.943 0 3.24-1.055 3.637-2.37.68-2.27.533-3.372.45-3.768zm.044 6.866a2.989 2.989 0 0 0-1.328-.672 3.97 3.97 0 0 1-2.812 1.03 3.976 3.976 0 0 1-2.81-1.027 3.022 3.022 0 0 0-1.333.68C63.325 66.91 63.055 70.713 63 72.76h11.338c-.055-2.055-.33-5.867-1.538-7.144zm12.147-.013a2.977 2.977 0 0 0-1.326-.672 3.976 3.976 0 0 1-2.815 1.03 3.977 3.977 0 0 1-2.817-1.03 3.007 3.007 0 0 0-1.325.683c-1.203 1.284-1.476 5.094-1.53 7.146h11.368c-.069-2.06-.345-5.878-1.555-7.157z" fill="#fff"/><path d="M86.087 60.135a3.37 3.37 0 0 0-1.132-.101 4.466 4.466 0 0 0-.052-1.28 3.159 3.159 0 0 0-1.287-1.844 4.633 4.633 0 0 0-1.558-.735 4.879 4.879 0 0 0-1.251-.167c-.487 0-.972.074-1.438.216a4.507 4.507 0 0 0-1.694.946 3.008 3.008 0 0 0-.968 1.593c-.073.42-.088.847-.043 1.27-.38-.03-.761.004-1.129.102-.65.175-1.806 1.074-1.44 2.52.153.6 1.12 1.327 1.798 1.743-.38-1.066-.322-1.992-.05-2.569.202-.393.53-.706.93-.89.098.54.227 1.073.388 1.598.02.063.041.123.063.183.459 1.233 1.724 2.186 3.583 2.186 1.858 0 3.126-.964 3.582-2.202.022-.058.044-.115.06-.175.16-.526.291-1.06.391-1.6.402.187.728.504.927.9.273.582.333 1.508-.041 2.574.677-.415 1.64-1.142 1.798-1.743.366-1.451-.79-2.35-1.438-2.525z" fill="#fff"/><defs><filter id="a" x="0" y="0" width="150" height="150" filterUnits="userSpaceOnUse" color-interpolation-filters="sRGB"><feFlood flood-opacity="0" result="BackgroundImageFix"/><feColorMatrix in="SourceAlpha" values="0 0 0 0 0 0 0 0 0 0 0 0 0 0 0 0 0 0 127 0" result="hardAlpha"/><feOffset dy="10"/><feGaussianBlur stdDeviation="25"/><feColorMatrix values="0 0 0 0 0 0 0 0 0 0 0 0 0 0 0 0 0 0 0.1 0"/><feBlend in2="BackgroundImageFix" result="effect1_dropShadow_2_133"/><feBlend in="SourceGraphic" in2="effect1_dropShadow_2_133" result="shape"/></filter></defs></svg>
